src/WeatherTwentyOne/Resources/Images/fluent_weather_rain_showers_day_20_filled.svg

<svg width="40" height="40" viewBox="0 0 40 40" fill="none" xmlns="http://www.w3.org/2000/svg">
<path d="M22 12C26.93 12 29.726 15.146 30.132 18.948H30.256C33.428 18.948 36 21.422 36 24.474C36 27.526 33.428 30 30.256 30H28.868L28.834 30.082L25.86 35.49C25.7408 35.7097 25.5436 35.8767 25.3074 35.9583C25.0711 36.0398 24.8129 36.03 24.5835 35.9306C24.3542 35.8312 24.1704 35.6496 24.0683 35.4215C23.9662 35.1933 23.9533 34.9352 24.032 34.698L24.104 34.534L26.6 30H22.892L22.856 30.082L19.882 35.49C19.7628 35.7097 19.5656 35.8767 19.3294 35.9583C19.0931 36.0398 18.8349 36.03 18.6055 35.9306C18.3762 35.8312 18.1924 35.6496 18.0903 35.4215C17.9882 35.1933 17.9753 34.9352 18.054 34.698L18.126 34.534L20.624 30H16.88L13.888 35.49C13.7688 35.7097 13.5716 35.8767 13.3354 35.9583C13.0991 36.0398 12.8409 36.03 12.6115 35.9306C12.3822 35.8312 12.1984 35.6496 12.0963 35.4215C11.9942 35.1933 11.9813 34.9352 12.06 34.698L12.132 34.534L14.604 30H13.744C10.572 30 8 27.526 8 24.474C8 21.422 10.572 18.948 13.744 18.948H13.868C14.278 15.12 17.07 12 22 12ZM7.606 17.4C7.68306 17.6215 7.67981 17.8631 7.59682 18.0824C7.51383 18.3018 7.35638 18.485 7.152 18.6L6.986 18.672L5.384 19.224C5.14759 19.3067 4.88874 19.2977 4.65864 19.1988C4.42854 19.0998 4.24396 18.9181 4.1414 18.6896C4.03883 18.4611 4.02575 18.2024 4.10475 17.9647C4.18374 17.727 4.34906 17.5277 4.568 17.406L4.732 17.334L6.336 16.782C6.58664 16.696 6.86117 16.713 7.09929 16.8292C7.33741 16.9455 7.51966 17.1515 7.606 17.402V17.4ZM17.84 9C18.504 9.324 19.09 9.746 19.586 10.24C16.062 10.968 13.526 13.306 12.5 16.552L12.37 17L12.278 17.374L11.948 17.434C11.0608 17.6167 10.2138 17.9582 9.448 18.442C8.67495 17.2378 8.31684 15.8139 8.42825 14.3873C8.53966 12.9607 9.11449 11.6096 10.0651 10.5401C11.0157 9.47053 12.29 8.74114 13.6937 8.46309C15.0973 8.18504 16.5534 8.37359 17.84 9V9ZM5.834 9.34L6 9.404L7.524 10.146C7.74867 10.2552 7.92433 10.4446 8.0164 10.6768C8.10847 10.909 8.1103 11.1673 8.02151 11.4008C7.93273 11.6343 7.75977 11.8261 7.53666 11.9385C7.31356 12.0508 7.05648 12.0756 6.816 12.008L6.648 11.944L5.124 11.202C4.89934 11.0928 4.72368 10.9034 4.63161 10.6712C4.53953 10.439 4.53771 10.1807 4.62649 9.94722C4.71528 9.71372 4.88824 9.52191 5.11134 9.40953C5.33445 9.29715 5.59153 9.27235 5.832 9.34H5.834ZM19.98 4.59C20.1906 4.69274 20.3584 4.86615 20.4542 5.07998C20.5499 5.29381 20.5676 5.53448 20.504 5.76L20.44 5.928L19.698 7.452C19.5888 7.67666 19.3994 7.85232 19.1672 7.94439C18.935 8.03647 18.6767 8.03829 18.4432 7.94951C18.2097 7.86072 18.0179 7.68776 17.9055 7.46466C17.7932 7.24155 17.7684 6.98447 17.836 6.744L17.9 6.574L18.644 5.05C18.7603 4.812 18.9664 4.62989 19.2169 4.54364C19.4673 4.4574 19.7418 4.47407 19.98 4.59V4.59ZM12.4 4.526L12.474 4.69L13.026 6.294C13.1071 6.53011 13.097 6.78803 12.9977 7.01706C12.8983 7.2461 12.7168 7.42967 12.4889 7.5317C12.2611 7.63372 12.0033 7.64682 11.7663 7.56842C11.5292 7.49001 11.3301 7.32578 11.208 7.108L11.136 6.944L10.584 5.342C10.5041 5.10644 10.5149 4.84958 10.6142 4.62154C10.7136 4.39351 10.8943 4.21067 11.1212 4.10873C11.3481 4.00678 11.6048 3.99305 11.8412 4.0702C12.0777 4.14736 12.2769 4.30986 12.4 4.526V4.526Z" fill="url(#paint0_linear)"/>
<defs>
<linearGradient id="paint0_linear" x1="9.50899" y1="9.80486" x2="27.9818" y2="27.0968" gradientUnits="userSpaceOnUse">
<stop offset="0.10243" stop-color="#28C2D1"/>
<stop offset="0.925347" stop-color="#4931DE"/>
</linearGradient>
</defs>
</svg>

<svg width="40" height="40" fill="none" xmlns="http://www.w3.org/2000/svg">
    <path
        d="M22 12c4.93 0 7.726 3.146 8.132 6.948h.124c3.172 0 5.744 2.474 5.744 5.526C36 27.526 33.428 30 30.256 30h-1.388l-.034.082-2.974 5.408a1 1 0 01-1.828-.792l.072-.164L26.6 30h-3.708l-.036.082-2.974 5.408a1 1 0 01-1.828-.792l.072-.164L20.624 30H16.88l-2.992 5.49a1 1 0 01-1.828-.792l.072-.164L14.604 30h-.86C10.572 30 8 27.526 8 24.474c0-3.052 2.572-5.526 5.744-5.526h.124C14.278 15.12 17.07 12 22 12zM7.606 17.4a1 1 0 01-.454 1.2l-.166.072-1.602.552a1 1 0 01-.816-1.818l.164-.072 1.604-.552a1 1 0 011.27.62V17.4zM17.84 9c.664.324 1.25.746 1.746 1.24-3.524.728-6.06 3.066-7.086 6.312l-.13.448-.092.374-.33.06a7.521 7.521 0 00-2.5 1.008A6.56 6.56 0 0117.84 9zm-12.006.34L6 9.404l1.524.742a1 1 0 01-.708 1.862l-.168-.064-1.524-.742a1 1 0 01.708-1.862h.002zM19.98 4.59a1 1 0 01.524 1.17l-.064.168-.742 1.524a1 1 0 01-1.862-.708l.064-.17.744-1.524a1 1 0 011.336-.46zm-7.58-.064l.074.164.552 1.604a1 1 0 01-1.818.814l-.072-.164-.552-1.602a1 1 0 011.816-.816z"
        fill="url(#prefix__paint0_linear)" />
    <defs>
        <linearGradient id="prefix__paint0_linear" x1="9.509" y1="9.805" x2="27.982" y2="27.097"
            gradientUnits="userSpaceOnUse">
            <stop offset=".102" stop-color="#28C2D1" />
            <stop offset=".925" stop-color="#4931DE" />
        </linearGradient>
    </defs>
</svg>
